X: 2
T: Missa Fors seulement / Gloria
N: Derived from Pip1004b-Missa_Fors_seulement-Gloria.krn
C: Matthaeus Pipelare
%%abc-version 2.0
%%abcx-abcm2ps-target-version 5.9.1 (29 Sep 2008)
%%abc-creator hum2abc beta
%%abcx-conversion-date 2019/02/17 07:30:01
%%abc-edited-by Jesse Rodin
%%abc-edited-by Jesse Rodin 8/24/2013
%%abcx-initial-encoding-date 2013/08/24/
%%humdrum-veritas 1695203179
%%humdrum-veritas-data 2505532887
%%linebreak <none>
%%barnumbers 0
L: 1/4
M: 2/1
Q: 1/2=120
V: 1 clef=treble
V: 2 clef=treble-8
V: 3 clef=bass
V: 4 clef=bass
V: 5 clef=bass
K: C
[V:1] z8 | 
[V:2] z8 | 
[V:3] z8 | 
[V:4] D,8 | 
[V:5] z8 | 
[V:1] z8 | 
[V:2] z8 | 
[V:3] z8 | 
[V:4] F,4E,4 | 
[V:5] z8 | 
[V:1] D4D4 | 
[V:2] z8 | 
[V:3] z8 | 
[V:4] F,4G,4 | 
[V:5] z8 | 
[V:1] F2F2E2E2 | 
[V:2] z8 | 
[V:3] z4C4 | 
[V:4] A,8 | 
[V:5] z8 | 
[V:1] F4G4 | 
[V:2] z8 | 
[V:3] A,2_B,2G,4 | 
[V:4] z8 | 
[V:5] z8 | 
[V:1] A8 | 
[V:2] z8 | 
[V:3] F,8 | 
[V:4] z4z2A,2- | 
[V:5] z4F,,4- | 
[V:1] z8 | 
[V:2] z8 | 
[V:3] z8 | 
[V:4] A,2G,F,A,4 | 
[V:5] F,,4F,,4 | 
[V:1] z8 | 
[V:2] z8 | 
[V:3] z8 | 
[V:4] G,F,E,D,F,2E,2- | 
[V:5] G,,4A,,4 | 
[V:1] z8 | 
[V:2] z8 | 
[V:3] z8 | 
[V:4] E,2D,4^C,2 | 
[V:5] F,,4E,,4 | 
[V:1] z8 | 
[V:2] z8 | 
[V:3] z4A,4- | 
[V:4] D,8 | 
[V:5] D,,8 | 
[V:1] E4D4 | 
[V:2] z8 | 
[V:3] A,2G,2_B,4 | 
[V:4] z8 | 
[V:5] z8 | 
[V:1] F4E4 | 
[V:2] z8 | 
[V:3] A,8 | 
[V:4] z4z2A,2 | 
[V:5] z2A,,4C,2- | 
[V:1] z8 | 
[V:2] z8 | 
[V:3] z8 | 
[V:4] A,2G,2F,2E,2 | 
[V:5] C,2B,,2A,,2G,,2 | 
[V:1] z4C4 | 
[V:2] z8 | 
[V:3] z4A,4 | 
[V:4] F,8 | 
[V:5] F,,8 | 
[V:1] D4E4 | 
[V:2] z8 | 
[V:3] F,4G,2E,2- | 
[V:4] z8 | 
[V:5] z8 | 
[V:1] C2B,A,B,4 | 
[V:2] z8 | 
[V:3] E,2A,3^G,G,^F, | 
[V:4] z8 | 
[V:5] z8 | 
[V:1] A,8- | 
[V:2] z8 | 
[V:3] A,2G,F,E,4- | 
[V:4] z4C,4 | 
[V:5] z4A,,4- | 
[V:1] A,8 | 
[V:2] z8 | 
[V:3] E,4z4 | 
[V:4] C,3D,E,2F,2 | 
[V:5] A,,4A,,4 | 
[V:1] z8 | 
[V:2] z8 | 
[V:3] z8 | 
[V:4] G,4E,2F,2- | 
[V:5] G,,4A,,4 | 
[V:1] z8 | 
[V:2] z8 | 
[V:3] z8 | 
[V:4] F,E,D,4^C,2 | 
[V:5] D,,4E,,4 | 
[V:1] z2A4A2 | 
[V:2] A8- | 
[V:3] z4F,4 | 
[V:4] D,8 | 
[V:5] D,,8 | 
[V:1] A2A2A4 | 
[V:2] A8 | 
[V:3] F,4F,4 | 
[V:4] D,4D,2D,2 | 
[V:5] D,,4D,,2D,,2 | 
[V:1] F4z2D2 | 
[V:2] A8 | 
[V:3] z2F,4F,2 | 
[V:4] D,4D,4 | 
[V:5] D,,4D,,4 | 
[V:1] ED^CB,C4 | 
[V:2] A8 | 
[V:3] E,4E,4 | 
[V:4] C,4A,,4 | 
[V:5] A,,4A,,4 | 
[V:1] D4D4 | 
[V:2] A8 | 
[V:3] D,4D,4 | 
[V:4] A,,2A,3G,F,E, | 
[V:5] D,,4D,,4 | 
[V:1] F4F4 | 
[V:2] A8 | 
[V:3] D,4D,4 | 
[V:4] D,2C,B,,A,,4 | 
[V:5] D,,4D,,4 | 
[V:1] D4D2D2 | 
[V:2] G8 | 
[V:3] D,4D,2D,2 | 
[V:4] B,,4B,,4 | 
[V:5] G,,4G,,2G,,2 | 
[V:1] G4G4 | 
[V:2] G8 | 
[V:3] D,4E,4 | 
[V:4] B,,4B,,2B,,2 | 
[V:5] G,,4G,,4 | 
[V:1] C4F4- | 
[V:2] A8- | 
[V:3] F,4F,4- | 
[V:4] C,4C,4 | 
[V:5] F,,4F,,4 | 
[V:1] F2F2A4 | 
[V:2] A8 | 
[V:3] F,2F,2F,4 | 
[V:4] C,4C,2D,2 | 
[V:5] F,,2F,,4D,,2 | 
[V:1] G2E4DC | 
[V:2] z8 | 
[V:3] E,6F,2 | 
[V:4] B,,4C,4 | 
[V:5] E,,4A,,4 | 
[V:1] B,4C4- | 
[V:2] z8 | 
[V:3] G,4G,2E,2- | 
[V:4] D,4E,4 | 
[V:5] G,,4E,,4 | 
[V:1] C2B,2A,4- | 
[V:2] z8 | 
[V:3] E,2D,C,D,4 | 
[V:4] A,,8 | 
[V:5] F,,8 | 
[V:1] A,2^G,4^F,G, | 
[V:2] z8 | 
[V:3] E,8- | 
[V:4] B,,8 | 
[V:5] E,,8 | 
[V:1] A,8- | 
[V:2] c8- | 
[V:3] E,8 | 
[V:4] A,,8- | 
[V:5] z4z2E,2 | 
[V:1] A,8 | 
[V:2] c4c4 | 
[V:3] z8 | 
[V:4] A,,8 | 
[V:5] F,2F,2E,2E,2 | 
[V:1] z8 | 
[V:2] c8 | 
[V:3] z2A,2G,2A,2- | 
[V:4] z8 | 
[V:5] A,,B,,C,D,E,2F,2- | 
[V:1] z4E4 | 
[V:2] c8 | 
[V:3] A,2G,F,G,4 | 
[V:4] z8 | 
[V:5] F,2E,D,E,4 | 
[V:1] F2F2F2D2 | 
[V:2] d8 | 
[V:3] A,2A,2A,2_B,2 | 
[V:4] z8 | 
[V:5] D,8 | 
[V:1] E4D2G2- | 
[V:2] c4B4- | 
[V:3] A,4z4 | 
[V:4] z8 | 
[V:5] z8 | 
[V:1] GFEDC4 | 
[V:2] B4A4- | 
[V:3] z8 | 
[V:4] E,4F,2F,2 | 
[V:5] z4A,,4 | 
[V:1] z4z2D2- | 
[V:2] A4G4 | 
[V:3] z8 | 
[V:4] E,4D,4 | 
[V:5] C,4B,,4 | 
[V:1] D2^CB,C2C2 | 
[V:2] A8- | 
[V:3] z4E,2E,2 | 
[V:4] E,4E,4 | 
[V:5] A,,8 | 
[V:1] D4F4 | 
[V:2] A8 | 
[V:3] F,4D,4 | 
[V:4] D,4z4 | 
[V:5] D,,8 | 
[V:1] E4D4 | 
[V:2] z8 | 
[V:3] A,4_B,2B,2 | 
[V:4] z8 | 
[V:5] z8 | 
[V:1] E2G4F2 | 
[V:2] z8 | 
[V:3] A,4F,4 | 
[V:4] z4D,4 | 
[V:5] z8 | 
[V:1] G8 | 
[V:2] z8 | 
[V:3] E,8 | 
[V:4] E,2E,2D,4 | 
[V:5] z4G,,4- | 
[V:1] z8 | 
[V:2] z8 | 
[V:3] z8 | 
[V:4] G,4F,2F,2 | 
[V:5] G,,4A,,4- | 
[V:1] z8 | 
[V:2] z8 | 
[V:3] z8 | 
[V:4] E,2A,4G,F, | 
[V:5] A,,4C,4- | 
[V:1] z8 | 
[V:2] z8 | 
[V:3] z8 | 
[V:4] A,2G,3F,E,D, | 
[V:5] C,4B,,4 | 
[V:1] E8- | 
[V:2] A8- | 
[V:3] E,8- | 
[V:4] C,8- | 
[V:5] A,,8- | 
[V:1] E8 | 
[V:2] A8 | 
[V:3] E,8- | 
[V:4] C,8 | 
[V:5] A,,8 | 
[V:1] E8 | 
[V:2] A8- | 
[V:3] E,8 | 
[V:4] C,8 | 
[V:5] A,,8 | 
[V:1] z8 | 
[V:2] A8 | 
[V:3] F,8- | 
[V:4] D,8 | 
[V:5] D,,8 | 
[V:1] A8- | 
[V:2] A8 | 
[V:3] F,8 | 
[V:4] A,,8 | 
[V:5] F,,8 | 
[V:1] A8 | 
[V:2] A8 | 
[V:3] E,8 | 
[V:4] C,8 | 
[V:5] A,,8 | 
[V:1] D8 | 
[V:2] B8 | 
[V:3] G,8 | 
[V:4] B,,8- | 
[V:5] G,,8- | 
[V:1] G8 | 
[V:2] G8 | 
[V:3] D,8- | 
[V:4] B,,8 | 
[V:5] G,,8 | 
[V:1] F8- | 
[V:2] A8- | 
[V:3] D,8 | 
[V:4] A,,8- | 
[V:5] D,,8- | 
[V:1] F8 | 
[V:2] A8 | 
[V:3] z4D,4 | 
[V:4] A,,8 | 
[V:5] D,,8 | 
[V:1] z4D4 | 
[V:2] z8 | 
[V:3] F,4G,4 | 
[V:4] z8 | 
[V:5] z8 | 
[V:1] F4G4 | 
[V:2] z8 | 
[V:3] A,4E,4 | 
[V:4] z8 | 
[V:5] z8 | 
[V:1] A4E4 | 
[V:2] z8 | 
[V:3] z2A,4G,2 | 
[V:4] z8 | 
[V:5] z8 | 
[V:1] z2A4G2- | 
[V:2] z8 | 
[V:3] F,G,A,B,C4 | 
[V:4] z8 | 
[V:5] z8 | 
[V:1] GFF4E2 | 
[V:2] z8 | 
[V:3] A,2_B,2G,4 | 
[V:4] z4C,4 | 
[V:5] z8 | 
[V:1] F8 | 
[V:2] z8 | 
[V:3] F,8 | 
[V:4] D,2F,4E,D, | 
[V:5] z8 | 
[V:1] z8 | 
[V:2] z8 | 
[V:3] z8 | 
[V:4] F,4E,4 | 
[V:5] z2A,,4C,2- | 
[V:1] z8 | 
[V:2] z8 | 
[V:3] z8 | 
[V:4] G,4D,4 | 
[V:5] C,2B,,4D,2- | 
[V:1] z8 | 
[V:2] z8 | 
[V:3] z8 | 
[V:4] z2A,4G,2 | 
[V:5] D,2A,,4E,2- | 
[V:1] z8 | 
[V:2] z8 | 
[V:3] z8 | 
[V:4] E,2F,2G,2E,2- | 
[V:5] E,2D,2C,2E,2- | 
[V:1] z8 | 
[V:2] z8 | 
[V:3] z8 | 
[V:4] E,2A,3^G,G,^F, | 
[V:5] E,2D,C,B,,4 | 
[V:1] z8 | 
[V:2] A8 | 
[V:3] z8 | 
[V:4] A,2G,F,E,2F,2 | 
[V:5] A,,3B,,C,2D,2 | 
[V:1] z8 | 
[V:2] A6B2 | 
[V:3] z8 | 
[V:4] E,2F,4E,D, | 
[V:5] C,2D,4C,B,, | 
[V:1] z8 | 
[V:2] c4B4- | 
[V:3] A,4G,2G,2- | 
[V:4] C,4z4 | 
[V:5] A,,4z2E,2- | 
[V:1] z8 | 
[V:2] B4A4- | 
[V:3] G,2F,2D,2E,2 | 
[V:4] z8 | 
[V:5] E,2D,4C,2 | 
[V:1] z4G4 | 
[V:2] A4G4 | 
[V:3] F,D,D4^C2 | 
[V:4] z8 | 
[V:5] D,2F,2E,4 | 
[V:1] F4E2F2- | 
[V:2] A8- | 
[V:3] D2CB,C2A,2- | 
[V:4] z4z2A,,2- | 
[V:5] D,4z2D,,2- | 
[V:1] FED4^C2 | 
[V:2] A8- | 
[V:3] A,G,F,2E,4 | 
[V:4] A,,2A,,2A,,2A,,2 | 
[V:5] D,,E,,F,,G,,A,,4 | 
[V:1] D8 ||  
[V:2] A8 ||  
[V:3] D,8 ||  
[V:4] A,,8 ||  
[V:5] D,,8 ||  
[V:1]  [K:C] [K:clef=treble][M:2/1]z4D4 | 
[V:2]  [K:C] [K:clef=treble-8][M:2/1]z8 | 
[V:3]  [K:C] [K:clef=bass][M:2/1]G,4G,2G,2 | 
[V:4]  [K:C] [K:clef=bass][M:2/1]z8 | 
[V:5]  [K:C] [K:clef=bass][M:2/1]z8 | 
[V:1] D2D2A,4 | 
[V:2] z8 | 
[V:3] D,4D,2F,2- | 
[V:4] z8 | 
[V:5] z8 | 
[V:1] A,2C4B,A, | 
[V:2] z8 | 
[V:3] F,2E,D,F,4 | 
[V:4] z8 | 
[V:5] z8 | 
[V:1] C4B,4 | 
[V:2] z8 | 
[V:3] E,4D,4 | 
[V:4] z4z2D,2- | 
[V:5] z8 | 
[V:1] A,8- | 
[V:2] z8 | 
[V:3] z8 | 
[V:4] D,2C,2A,,2D,2 | 
[V:5] z8 | 
[V:1] A,8 | 
[V:2] z8 | 
[V:3] z8 | 
[V:4] C,2F,4E,2 | 
[V:5] z4z2A,,2- | 
[V:1] z8 | 
[V:2] z8 | 
[V:3] z8 | 
[V:4] C,2D,2E,2A,,2- | 
[V:5] A,,2F,,2G,,2A,,2 | 
[V:1] z8 | 
[V:2] z8 | 
[V:3] z8 | 
[V:4] A,,2D,3^C,C,B,, | 
[V:5] D,,4E,,4 | 
[V:1] z2F2F4 | 
[V:2] z8 | 
[V:3] z4z2A,2 | 
[V:4] D,8 | 
[V:5] D,,8 | 
[V:1] F4z2F2 | 
[V:2] z8 | 
[V:3] A,4A,4 | 
[V:4] z8 | 
[V:5] z8 | 
[V:1] F4F4 | 
[V:2] z8 | 
[V:3] z2F,3E,D,2 | 
[V:4] z8 | 
[V:5] z8 | 
[V:1] E2F4ED | 
[V:2] z8 | 
[V:3] C,2D,4C,B,, | 
[V:4] z8 | 
[V:5] z8 | 
[V:1] C4C4- | 
[V:2] E8- | 
[V:3] A,,4A,4- | 
[V:4] z4C,4- | 
[V:5] z4A,,4- | 
[V:1] C4C4 | 
[V:2] E8 | 
[V:3] A,4A,4 | 
[V:4] C,2C,2C,4 | 
[V:5] A,,2A,,2A,,4 | 
[V:1] C8- | 
[V:2] E8 | 
[V:3] A,8- | 
[V:4] C,4C,2C,2- | 
[V:5] A,,4A,,2A,,2- | 
[V:1] C8 | 
[V:2] E8 | 
[V:3] A,8- | 
[V:4] C,2C,2C,4 | 
[V:5] A,,2A,,2A,,4 | 
[V:1] z8 | 
[V:2] F8- | 
[V:3] A,8 | 
[V:4] D,6C,B,, | 
[V:5] D,,8 | 
[V:1] z4z2D2 | 
[V:2] F4E2D2 | 
[V:3] z8 | 
[V:4] A,,4B,,4 | 
[V:5] F,,4G,,4 | 
[V:1] E2G4FE | 
[V:2] C8 | 
[V:3] z8 | 
[V:4] G,,8 | 
[V:5] E,,8 | 
[V:1] F2D4CB, | 
[V:2] D8 | 
[V:3] z4z2D,2- | 
[V:4] A,,8- | 
[V:5] D,,8- | 
[V:1] A,2D3CB,A, | 
[V:2] F8 | 
[V:3] D,2C,B,,A,,2D,2 | 
[V:4] A,,8 | 
[V:5] D,,8 | 
[V:1] B,3CD2E2- | 
[V:2] G8 | 
[V:3] G,,3A,,B,,2C,2- | 
[V:4] z8 | 
[V:5] z8 | 
[V:1] E2DCB,2E2- | 
[V:2] E8- | 
[V:3] C,2B,,A,,G,,2C,2- | 
[V:4] z4z2A,2- | 
[V:5] z8 | 
[V:1] E2D4^C2 | 
[V:2] E8 | 
[V:3] C,2B,,2A,,4 | 
[V:4] A,2G,2A,4 | 
[V:5] z8 | 
[V:1] D8- | 
[V:2] D8- | 
[V:3] A,8- | 
[V:4] F,4D,2F,2- | 
[V:5] z4D,4- | 
[V:1] D8 | 
[V:2] D8 | 
[V:3] A,8 | 
[V:4] F,G,A,4G,F, | 
[V:5] D,4D,4 | 
[V:1] z8 | 
[V:2] z8 | 
[V:3] z8 | 
[V:4] A,4A,2C2- | 
[V:5] F,4F,4 | 
[V:1] z8 | 
[V:2] z8 | 
[V:3] z8 | 
[V:4] C2B,A,B,2A,2- | 
[V:5] E,4D,2F,2- | 
[V:1] z8 | 
[V:2] z8 | 
[V:3] z4z2A,2- | 
[V:4] A,2G,2F,2E,D, | 
[V:5] F,2E,2D,2C,B,, | 
[V:1] z4z2A2- | 
[V:2] z8 | 
[V:3] A,2G,F,E,2F,2- | 
[V:4] C,8 | 
[V:5] A,,8 | 
[V:1] A2GFE2F2- | 
[V:2] z8 | 
[V:3] F,2E,D,C,2D,2- | 
[V:4] z8 | 
[V:5] z8 | 
[V:1] F2EDC2F2 | 
[V:2] A8- | 
[V:3] D,2C,B,,A,,2D,2 | 
[V:4] z8 | 
[V:5] z8 | 
[V:1] E2F2C4 | 
[V:2] A8 | 
[V:3] C,2D,2A,,2E,2- | 
[V:4] z4C,4- | 
[V:5] z4A,,4- | 
[V:1] z2A3AA2 | 
[V:2] A8 | 
[V:3] E,2E,2E,4 | 
[V:4] C,2C,2C,4 | 
[V:5] A,,2A,,2A,,4 | 
[V:1] z2A3GF2 | 
[V:2] A8 | 
[V:3] C,4z2C2- | 
[V:4] z4z2C,2- | 
[V:5] A,,4F,,4 | 
[V:1] E2F3EED | 
[V:2] G8 | 
[V:3] C2C2C4 | 
[V:4] C,2C,2C,2C,2 | 
[V:5] C,4C,4 | 
[V:1] F8- | 
[V:2] F8 | 
[V:3] A,2C3B,A,G, | 
[V:4] C,4z2C,2 | 
[V:5] F,,8 | 
[V:1] F8 | 
[V:2] A6B2 | 
[V:3] F,2A,4G,F, | 
[V:4] D,2F,4E,D, | 
[V:5] z8 | 
[V:1] z8 | 
[V:2] c4B4- | 
[V:3] E,4F,4 | 
[V:4] C,4D,4 | 
[V:5] z8 | 
[V:1] z8 | 
[V:2] B4A4- | 
[V:3] G,4E,2F,2- | 
[V:4] E,4C,2D,2- | 
[V:5] z8 | 
[V:1] z8 | 
[V:2] A4^G4 | 
[V:3] F,E,D,C,D,4 | 
[V:4] D,C,B,,A,,B,,4 | 
[V:5] z8 | 
[V:1] z8 | 
[V:2] A8- | 
[V:3] E,2F,4E,D, | 
[V:4] A,,8 | 
[V:5] z4A,,4- | 
[V:1] z8 | 
[V:2] A8 | 
[V:3] C,2C4B,A, | 
[V:4] z8 | 
[V:5] A,,4A,,4 | 
[V:1] z8 | 
[V:2] z8 | 
[V:3] G,2A,4B,2- | 
[V:4] z8 | 
[V:5] C,4D,4 | 
[V:1] z8 | 
[V:2] z8 | 
[V:3] B,2C2A,2B,2- | 
[V:4] z8 | 
[V:5] E,4C,2D,2- | 
[V:1] z8 | 
[V:2] z8 | 
[V:3] B,A,D4^C2 | 
[V:4] z8 | 
[V:5] D,2F,2E,4 | 
[V:1] z4D4- | 
[V:2] z8 | 
[V:3] D4z2D,2- | 
[V:4] z8 | 
[V:5] D,8 | 
[V:1] D4D4 | 
[V:2] z8 | 
[V:3] D,2G,2F,2G,2 | 
[V:4] z8 | 
[V:5] z8 | 
[V:1] D8- | 
[V:2] z8 | 
[V:3] D,E,F,G,A,2B,2- | 
[V:4] z4F,4 | 
[V:5] z4D,4 | 
[V:1] D8 | 
[V:2] z8 | 
[V:3] B,2A,4^G,2 | 
[V:4] F,4D,4 | 
[V:5] D,4B,,4 | 
[V:1] C8- | 
[V:2] A8- | 
[V:3] A,6G,F, | 
[V:4] E,8 | 
[V:5] A,,8- | 
[V:1] C8 | 
[V:2] A8 | 
[V:3] E,8 | 
[V:4] z8 | 
[V:5] A,,8 | 
[V:1] A,4z2A2- | 
[V:2] A8 | 
[V:3] E,8 | 
[V:4] C,8 | 
[V:5] A,,8 | 
[V:1] A2GFE2A2 | 
[V:2] A8 | 
[V:3] E,4E,4 | 
[V:4] C,4C,4 | 
[V:5] A,,4A,,4 | 
[V:1] D4z2G2- | 
[V:2] B8 | 
[V:3] G,8- | 
[V:4] D,8- | 
[V:5] G,,8- | 
[V:1] G2FED2G2 | 
[V:2] B8 | 
[V:3] G,4G,4 | 
[V:4] D,4D,4 | 
[V:5] G,,4G,,4 | 
[V:1] C4E4 | 
[V:2] c8- | 
[V:3] G,4G,4 | 
[V:4] E,4E,4 | 
[V:5] C,4C,4 | 
[V:1] E4E4 | 
[V:2] c8 | 
[V:3] A,4G,4 | 
[V:4] E,4E,4 | 
[V:5] C,4C,4 | 
[V:1] F6ED | 
[V:2] c8- | 
[V:3] F,4A,4- | 
[V:4] C,4F,4- | 
[V:5] F,,8- | 
[V:1] C4z4 | 
[V:2] c4B4 | 
[V:3] A,4G,4 | 
[V:4] F,2E,2D,4 | 
[V:5] F,,4G,,4 | 
[V:1] C4E4- | 
[V:2] A8 | 
[V:3] E,8- | 
[V:4] C,4z2C,2- | 
[V:5] A,,8 | 
[V:1] E2F2G4 | 
[V:2] G8 | 
[V:3] E,8 | 
[V:4] C,2B,,A,,B,,4 | 
[V:5] E,,8 | 
[V:1] C2E3DCB, | 
[V:2] A8 | 
[V:3] E,4C,4 | 
[V:4] A,,8 | 
[V:5] z4A,,4 | 
[V:1] A,4z2E2- | 
[V:2] F4G4- | 
[V:3] C4B,2C2- | 
[V:4] z8 | 
[V:5] A,,4G,,2C,2- | 
[V:1] E2D2C2D2 | 
[V:2] G2F2E2D2 | 
[V:3] CB,A,4G,2 | 
[V:4] z8 | 
[V:5] C,2D,2A,,2B,,2 | 
[V:1] C2D3^CCB, | 
[V:2] E8 | 
[V:3] A,2_B,2A,4 | 
[V:4] z4z2A,,2- | 
[V:5] A,,2G,,2A,,4 | 
[V:1] D8- | 
[V:2] D8- | 
[V:3] A,2G,4A,2 | 
[V:4] A,,2_B,,4A,,2 | 
[V:5] F,,2G,,4F,,2 | 
[V:1] D8 | 
[V:2] D8- | 
[V:3] F,8 | 
[V:4] A,,8- | 
[V:5] D,,8- | 
[V:1] D8 |]  
[V:2] D8 |]  
[V:3] A,8 |]  
[V:4] A,,8 |]  
[V:5] D,,8 |]  



